usr/share/icons/biglinux-icons-material/16/actions/reverse.svg

<svg xmlns="http://www.w3.org/2000/svg" viewBox="0 0 16 16">
  <defs id="defs3051">
    <style type="text/css" id="current-color-scheme">
      .ColorScheme-Text {
        color:#363636;
      }
      </style>
  </defs>
 <path style="fill:currentColor;fill-opacity:1;stroke:none" 
     d="M 5 2 L 5 3.9394531 L 5 12.091797 L 2.71875 9.8457031 L 2 10.554688 L 5.28125 13.785156 L 5.5 14 L 5.71875 13.785156 L 9 10.554688 L 8.28125 9.8457031 L 6 12.091797 L 6 3.9394531 L 6 2 L 5 2 z M 10.5 2 L 10.28125 2.2148438 L 7 5.4453125 L 7.71875 6.1542969 L 10 3.9082031 L 10 12.060547 L 10 14 L 11 14 L 11 12.060547 L 11 3.9082031 L 13.28125 6.1542969 L 14 5.4453125 L 10.71875 2.2148438 L 10.5 2 z "
     class="ColorScheme-Text"
     />
</svg>

<svg xmlns="http://www.w3.org/2000/svg" viewBox="0 0 16 16"><path d="M5 2V12.092L2.719 9.846 2 10.555l3.281 3.23L5.5 14l.219-.215L9 10.555l-.719-.71L6 12.093V2H5zm5.5 0-.219.215L7 5.445l.719.71L10 3.907V14h1V3.908l2.281 2.246.719-.709-3.281-3.23L10.5 2z" style="fill:currentColor;fill-opacity:1;stroke:none;color:#dedede"/></svg>
